lib/flags/m/BLZ.svg

<svg xmlns="http://www.w3.org/2000/svg" fill="none" viewBox="0 0 20 15"><mask id="BLZ_svg__a" width="20" height="15" x="0" y="0" mask-type="alpha" maskUnits="userSpaceOnUse"><path fill="#fff" d="M0 0H20V15H0z"/></mask><g mask="url(#BLZ_svg__a)"><path fill="#0168B4" fill-rule="evenodd" d="M0 0V15H20V0H0Z" clip-rule="evenodd"/><mask id="BLZ_svg__b" width="20" height="15" x="0" y="0" mask-type="alpha" maskUnits="userSpaceOnUse"><path fill="#fff" fill-rule="evenodd" d="M0 0V15H20V0H0Z" clip-rule="evenodd"/></mask><g mask="url(#BLZ_svg__b)"><path fill="#E93C43" fill-rule="evenodd" d="M0-1V2H20V-1H0zM0 13V16H20V13H0z" clip-rule="evenodd"/><path fill="#F7FCFF" d="M10 11.25C7.92893 11.25 6.25 9.57107 6.25 7.5C6.25 5.42893 7.92893 3.75 10 3.75C12.0711 3.75 13.75 5.42893 13.75 7.5C13.75 9.57107 12.0711 11.25 10 11.25Z"/><path fill="#fff" fill-rule="evenodd" d="M5.625 7.5C5.625 9.91625 7.58375 11.875 10 11.875C12.4162 11.875 14.375 9.91625 14.375 7.5C14.375 5.08375 12.4162 3.125 10 3.125C7.58375 3.125 5.625 5.08375 5.625 7.5ZM13.75 7.5C13.75 9.57107 12.0711 11.25 10 11.25C7.92893 11.25 6.25 9.57107 6.25 7.5C6.25 5.42893 7.92893 3.75 10 3.75C12.0711 3.75 13.75 5.42893 13.75 7.5Z" clip-rule="evenodd"/><path fill="#5B8C39" fill-rule="evenodd" d="M6.25 7.5C6.25 9.57107 7.92893 11.25 10 11.25C12.0711 11.25 13.75 9.57107 13.75 7.5C13.75 5.42893 12.0711 3.75 10 3.75C7.92893 3.75 6.25 5.42893 6.25 7.5ZM12.875 7.5C12.875 9.08782 11.5878 10.375 10 10.375C8.41218 10.375 7.125 9.08782 7.125 7.5C7.125 5.91218 8.41218 4.625 10 4.625C11.5878 4.625 12.875 5.91218 12.875 7.5Z" clip-rule="evenodd"/><path fill="#5B8C39" fill-rule="evenodd" d="M8.125 8.75004L9.96193 8.5155L11.875 8.75004V9.37504L9.96193 9.1405L8.125 9.37504V8.75004Z" clip-rule="evenodd"/><path fill="#769DF1" fill-rule="evenodd" d="M8.74999 6.25H11.25C11.25 6.25 11.4268 10 9.99999 10C8.57322 10 8.74999 6.25 8.74999 6.25Z" clip-rule="evenodd"/><path fill="#FECA00" d="M10 6.25H11.25V7.5H10z"/><path fill="#F6F7F8" d="M8.75 6.25H10V7.5H8.75z" opacity=".6"/><rect width="2.5" height="1.25" x="8.75" y="5" fill="#5B8C39" opacity=".66" rx=".625"/><path fill="#E9AD35" fill-rule="evenodd" d="M8.62503 8C8.97021 8 9.25003 7.44036 9.25003 6.75C9.25003 6.05964 8.97021 5.5 8.62503 5.5C8.27985 5.5 8.00003 6.05964 8.00003 6.75C8.00003 7.44036 8.27985 8 8.62503 8Z" clip-rule="evenodd"/><path fill="#5C2216" fill-rule="evenodd" d="M11.375 8C11.7201 8 12 7.44036 12 6.75C12 6.05964 11.7201 5.5 11.375 5.5C11.0298 5.5 10.75 6.05964 10.75 6.75C10.75 7.44036 11.0298 8 11.375 8Z" clip-rule="evenodd"/></g></g></svg>

<svg xmlns="http://www.w3.org/2000/svg" fill="none" viewBox="0 0 20 15"><mask id="BLZ_svg__a" width="20" height="15" x="0" y="0" maskUnits="userSpaceOnUse"><path fill="#fff" d="M0 0h20v15H0z"/></mask><g mask="url(#BLZ_svg__a)"><path fill="#0168B4" fill-rule="evenodd" d="M0 0v15h20V0H0z" clip-rule="evenodd"/><mask id="BLZ_svg__b" width="20" height="15" x="0" y="0" maskUnits="userSpaceOnUse"><path fill="#fff" fill-rule="evenodd" d="M0 0v15h20V0H0z" clip-rule="evenodd"/></mask><g mask="url(#BLZ_svg__b)"><path fill="#E93C43" fill-rule="evenodd" d="M0-1v3h20v-3H0zm0 14v3h20v-3H0z" clip-rule="evenodd"/><path fill="#F7FCFF" d="M10 11.25a3.75 3.75 0 110-7.5 3.75 3.75 0 010 7.5z"/><path fill="#fff" fill-rule="evenodd" d="M5.625 7.5a4.375 4.375 0 108.75 0 4.375 4.375 0 00-8.75 0zm8.125 0a3.75 3.75 0 11-7.5 0 3.75 3.75 0 017.5 0z" clip-rule="evenodd"/><path fill="#5B8C39" fill-rule="evenodd" d="M6.25 7.5a3.75 3.75 0 107.5 0 3.75 3.75 0 00-7.5 0zm6.625 0a2.875 2.875 0 11-5.75 0 2.875 2.875 0 015.75 0z" clip-rule="evenodd"/><path fill="#5B8C39" fill-rule="evenodd" d="M8.125 8.75l1.837-.235 1.913.235v.625L9.962 9.14l-1.837.235V8.75z" clip-rule="evenodd"/><path fill="#769DF1" fill-rule="evenodd" d="M8.75 6.25h2.5S11.427 10 10 10 8.75 6.25 8.75 6.25z" clip-rule="evenodd"/><path fill="#FECA00" d="M10 6.25h1.25V7.5H10z"/><path fill="#F6F7F8" d="M8.75 6.25H10V7.5H8.75z" opacity=".6"/><rect width="2.5" height="1.25" x="8.75" y="5" fill="#5B8C39" opacity=".66" rx=".625"/><path fill="#E9AD35" fill-rule="evenodd" d="M8.625 8c.345 0 .625-.56.625-1.25S8.97 5.5 8.625 5.5 8 6.06 8 6.75 8.28 8 8.625 8z" clip-rule="evenodd"/><path fill="#5C2216" fill-rule="evenodd" d="M11.375 8C11.72 8 12 7.44 12 6.75s-.28-1.25-.625-1.25-.625.56-.625 1.25.28 1.25.625 1.25z" clip-rule="evenodd"/></g></g></svg>
